X:65
T:I care for nothing now
T:H\`o gur coma leam h-uile ni th' ann
R:Jig
S:Simon Fraser Collection
N:No.160
O:Scottish
M:6/8
L:1/8
K:D
(f/e/)|d2A B>AF|[FA][FA][FA] [F2A2] (f/e/)|d2A (B/c/d)F|
[CE][CE][CE] [C2E2] (f/e/)|d2A B>AF| AD (a/g/) f2e|d<cB A<FA|
[DF][DF][DF] [D2F2]:|
(f/e/)|d>ed fdf/g/|afd ec(A/B/4c/4)|dcB AGF|[CE][CE][CE] [C2E2] (f/e/)|
d>ed f<d (f/4e/4f/4g/4)|afd ec(A/B/4c/4)|
d>cB A<FA|[DF][DF][DF] [D2F2](f/e/)|
d>ed fd(f/g/)|afd ecA/B/4c/4|d>cB (Ad)F|[CE][CE][CE] [C2E2] F/G/|
ABc def|gec d2 (e/4d/4c/4B/4)|A<FB AFA|[DF][DF][DF] [D2F2||

